svgs/duotone/grid-4.svg

<svg xmlns="http://www.w3.org/2000/svg" viewBox="0 0 448 512"><!--! Font Awesome Pro 6.6.0 by @fontawesome - https://fontawesome.com License - https://fontawesome.com/license (Commercial License) Copyright 2024 Fonticons, Inc. --><defs><style>.fa-secondary{opacity:.4}</style></defs><path class="fa-secondary" d="M0 167.5l0 57.6c0 8.8 7.2 16 16 16l57.6 0c8.8 0 16-7.2 16-16l0-57.6c0-8.8-7.2-16-16-16l-57.6 0c-8.8 0-16 7.2-16 16zM0 406.4L0 464c0 8.8 7.2 16 16 16l57.6 0c8.8 0 16-7.2 16-16l0-57.6c0-8.8-7.2-16-16-16l-57.6 0c-8.8 0-16 7.2-16 16zM119.5 48l0 57.6c0 8.8 7.2 16 16 16l57.6 0c8.8 0 16-7.2 16-16l0-57.6c0-8.8-7.2-16-16-16l-57.6 0c-8.8 0-16 7.2-16 16zm0 238.9l0 57.6c0 8.8 7.2 16 16 16l57.6 0c8.8 0 16-7.2 16-16l0-57.6c0-8.8-7.2-16-16-16l-57.6 0c-8.8 0-16 7.2-16 16zM238.9 167.5l0 57.6c0 8.8 7.2 16 16 16l57.6 0c8.8 0 16-7.2 16-16l0-57.6c0-8.8-7.2-16-16-16l-57.6 0c-8.8 0-16 7.2-16 16zm0 238.9l0 57.6c0 8.8 7.2 16 16 16l57.6 0c8.8 0 16-7.2 16-16l0-57.6c0-8.8-7.2-16-16-16l-57.6 0c-8.8 0-16 7.2-16 16zM358.4 48l0 57.6c0 8.8 7.2 16 16 16l57.6 0c8.8 0 16-7.2 16-16L448 48c0-8.8-7.2-16-16-16l-57.6 0c-8.8 0-16 7.2-16 16zm0 238.9l0 57.6c0 8.8 7.2 16 16 16l57.6 0c8.8 0 16-7.2 16-16l0-57.6c0-8.8-7.2-16-16-16l-57.6 0c-8.8 0-16 7.2-16 16z"/><path class="fa-primary" d="M16 32C7.2 32 0 39.2 0 48l0 57.6c0 8.8 7.2 16 16 16l57.6 0c8.8 0 16-7.2 16-16l0-57.6c0-8.8-7.2-16-16-16L16 32zm0 238.9c-8.8 0-16 7.2-16 16l0 57.6c0 8.8 7.2 16 16 16l57.6 0c8.8 0 16-7.2 16-16l0-57.6c0-8.8-7.2-16-16-16l-57.6 0zM119.5 167.5l0 57.6c0 8.8 7.2 16 16 16l57.6 0c8.8 0 16-7.2 16-16l0-57.6c0-8.8-7.2-16-16-16l-57.6 0c-8.8 0-16 7.2-16 16zm16 222.9c-8.8 0-16 7.2-16 16l0 57.6c0 8.8 7.2 16 16 16l57.6 0c8.8 0 16-7.2 16-16l0-57.6c0-8.8-7.2-16-16-16l-57.6 0zM238.9 48l0 57.6c0 8.8 7.2 16 16 16l57.6 0c8.8 0 16-7.2 16-16l0-57.6c0-8.8-7.2-16-16-16l-57.6 0c-8.8 0-16 7.2-16 16zm16 222.9c-8.8 0-16 7.2-16 16l0 57.6c0 8.8 7.2 16 16 16l57.6 0c8.8 0 16-7.2 16-16l0-57.6c0-8.8-7.2-16-16-16l-57.6 0zM358.4 167.5l0 57.6c0 8.8 7.2 16 16 16l57.6 0c8.8 0 16-7.2 16-16l0-57.6c0-8.8-7.2-16-16-16l-57.6 0c-8.8 0-16 7.2-16 16zm16 222.9c-8.8 0-16 7.2-16 16l0 57.6c0 8.8 7.2 16 16 16l57.6 0c8.8 0 16-7.2 16-16l0-57.6c0-8.8-7.2-16-16-16l-57.6 0z"/></svg>

<svg xmlns="http://www.w3.org/2000/svg" viewBox="0 0 448 512"><!--! Font Awesome Pro 6.4.0 by @fontawesome - https://fontawesome.com License - https://fontawesome.com/license (Commercial License) Copyright 2023 Fonticons, Inc. --><defs><style>.fa-secondary{opacity:.4}</style></defs><path class="fa-primary" d="M16 32C7.2 32 0 39.2 0 48v57.6c0 8.8 7.2 16 16 16H73.6c8.8 0 16-7.2 16-16V48c0-8.8-7.2-16-16-16H16zm0 238.9c-8.8 0-16 7.2-16 16v57.6c0 8.8 7.2 16 16 16H73.6c8.8 0 16-7.2 16-16V286.9c0-8.8-7.2-16-16-16H16zM119.5 167.5v57.6c0 8.8 7.2 16 16 16h57.6c8.8 0 16-7.2 16-16V167.5c0-8.8-7.2-16-16-16H135.5c-8.8 0-16 7.2-16 16zm16 222.9c-8.8 0-16 7.2-16 16V464c0 8.8 7.2 16 16 16h57.6c8.8 0 16-7.2 16-16V406.4c0-8.8-7.2-16-16-16H135.5zM238.9 48v57.6c0 8.8 7.2 16 16 16h57.6c8.8 0 16-7.2 16-16V48c0-8.8-7.2-16-16-16H254.9c-8.8 0-16 7.2-16 16zm16 222.9c-8.8 0-16 7.2-16 16v57.6c0 8.8 7.2 16 16 16h57.6c8.8 0 16-7.2 16-16V286.9c0-8.8-7.2-16-16-16H254.9zM358.4 167.5v57.6c0 8.8 7.2 16 16 16H432c8.8 0 16-7.2 16-16V167.5c0-8.8-7.2-16-16-16H374.4c-8.8 0-16 7.2-16 16zm16 222.9c-8.8 0-16 7.2-16 16V464c0 8.8 7.2 16 16 16H432c8.8 0 16-7.2 16-16V406.4c0-8.8-7.2-16-16-16H374.4z"/><path class="fa-secondary" d="M119.5 48v57.6c0 8.8 7.2 16 16 16h57.6c8.8 0 16-7.2 16-16V48c0-8.8-7.2-16-16-16H135.5c-8.8 0-16 7.2-16 16zM16 151.5c-8.8 0-16 7.2-16 16v57.6c0 8.8 7.2 16 16 16H73.6c8.8 0 16-7.2 16-16V167.5c0-8.8-7.2-16-16-16H16zm0 238.9c-8.8 0-16 7.2-16 16V464c0 8.8 7.2 16 16 16H73.6c8.8 0 16-7.2 16-16V406.4c0-8.8-7.2-16-16-16H16zM135.5 270.9c-8.8 0-16 7.2-16 16v57.6c0 8.8 7.2 16 16 16h57.6c8.8 0 16-7.2 16-16V286.9c0-8.8-7.2-16-16-16H135.5zM238.9 167.5v57.6c0 8.8 7.2 16 16 16h57.6c8.8 0 16-7.2 16-16V167.5c0-8.8-7.2-16-16-16H254.9c-8.8 0-16 7.2-16 16zm16 222.9c-8.8 0-16 7.2-16 16V464c0 8.8 7.2 16 16 16h57.6c8.8 0 16-7.2 16-16V406.4c0-8.8-7.2-16-16-16H254.9zM358.4 48v57.6c0 8.8 7.2 16 16 16H432c8.8 0 16-7.2 16-16V48c0-8.8-7.2-16-16-16H374.4c-8.8 0-16 7.2-16 16zm16 222.9c-8.8 0-16 7.2-16 16v57.6c0 8.8 7.2 16 16 16H432c8.8 0 16-7.2 16-16V286.9c0-8.8-7.2-16-16-16H374.4z"/></svg>
